logos/user-testing-icon.svg

<?xml version="1.0" encoding="UTF-8"?>
<svg width="256px" height="330px" viewBox="0 0 256 330" version="1.1" xmlns="http://www.w3.org/2000/svg" xmlns:xlink="http://www.w3.org/1999/xlink" preserveAspectRatio="xMidYMid">
    <g>
        <path d="M51.3658459,0 L205.635737,0 C234.412589,0 257.04461,22.6320205 255.962773,50.413583 L255.962773,219.093537 C255.962773,246.831826 233.374026,269.463847 205.592464,269.463847 L171.66607,269.463847 L190.187111,329.094677 L100.740866,269.463847 L51.4091194,269.463847 C22.6322673,269.463847 6.14225215e-05,246.831826 6.14225215e-05,218.054974 L6.14225215e-05,50.4568565 C-0.043026715,22.6320205 22.5889938,0 51.3658459,0 Z M111.299591,185.12387 C106.063502,182.224548 101.865976,178.027022 98.7070132,172.488019 C95.5480504,166.949016 93.9902058,160.284903 93.9902058,152.538953 L93.9902058,62.6599727 C93.9902058,61.2752219 93.6872916,60.1933854 93.0381897,59.50101 C92.4323612,58.7653611 91.3937981,58.4191735 89.9225004,58.4191735 L66.9442922,58.4191735 C66.4250106,58.4191735 65.9057291,58.5057204 65.429721,58.7220877 C64.9537129,58.938455 64.5209783,59.2413692 64.2180641,59.6741038 C63.4824152,60.4962996 63.0929541,61.5781362 63.1362275,62.7032462 L63.1362275,152.192765 C63.1362275,166.516281 66.0788229,178.50303 71.9640138,188.239559 C77.8492046,197.932814 85.7249746,205.159482 95.6778708,209.919563 C105.587494,214.679644 116.6655,217.016411 128.868616,217.016411 C141.115006,217.016411 152.193012,214.679644 162.102635,210.049384 C172.012257,205.419123 179.888028,198.279002 185.773218,188.585747 C191.658409,178.892491 194.601005,166.862469 194.601005,152.495679 L194.601005,62.7465196 C194.601005,62.1839646 194.514458,61.6214096 194.29809,61.0588546 C194.081723,60.5395731 193.778809,60.0202915 193.389348,59.6308304 C192.567152,58.8086346 191.485315,58.3759 190.100565,58.3759 L168.204193,58.3759 C166.905989,58.3759 165.824152,58.7653611 165.04523,59.5875569 C164.223034,60.4097527 163.833573,61.4483158 163.833573,62.7465196 L163.833573,152.538953 C163.833573,159.765621 162.275729,166.213367 159.160039,171.795643 C156.04435,177.421193 151.846824,181.74854 146.524188,184.820955 C141.201553,187.893371 135.316362,189.407942 128.91189,189.407942 C122.377597,189.451216 116.535679,188.023192 111.299591,185.12387 Z" fill="#315CFD"></path>
    </g>
</svg>

<svg preserveAspectRatio="xMidYMid" viewBox="0 0 256 330" xmlns="http://www.w3.org/2000/svg">
  <path fill="#315CFD" d="M51.366 0h154.27c28.777 0 51.409 22.632 50.327 50.414v168.68c0 27.738-22.589 50.37-50.37 50.37h-33.927l18.521 59.63-89.446-59.63H51.409C22.632 269.464 0 246.832 0 218.055V50.457C-.043 22.632 22.59 0 51.366 0ZM111.3 185.124c-5.236-2.9-9.434-7.097-12.593-12.636-3.159-5.539-4.717-12.203-4.717-19.949V62.66c0-1.385-.303-2.467-.952-3.159-.606-.736-1.644-1.082-3.115-1.082H66.944c-.519 0-1.038.087-1.514.303s-.909.52-1.212.952a4.285 4.285 0 0 0-1.082 3.03v89.489c0 14.323 2.943 26.31 8.828 36.047 5.885 9.693 13.761 16.92 23.714 21.68 9.91 4.76 20.987 7.096 33.19 7.096 12.247 0 23.325-2.336 33.235-6.967 9.91-4.63 17.785-11.77 23.67-21.463 5.885-9.694 8.828-21.724 8.828-36.09v-89.75a4.64 4.64 0 0 0-.303-1.687c-.216-.52-.52-1.039-.909-1.428-.822-.822-1.904-1.255-3.288-1.255h-21.897c-1.298 0-2.38.39-3.159 1.212-.822.822-1.211 1.86-1.211 3.159v89.792c0 7.227-1.558 13.674-4.674 19.257-3.116 5.625-7.313 9.953-12.636 13.025-5.322 3.072-11.208 4.587-17.612 4.587-6.534.043-12.376-1.385-17.612-4.284Z"/>
</svg>
